public/static/img/user/error_red.svg

<svg width="9" height="9" viewBox="0 0 9 9" fill="none" xmlns="http://www.w3.org/2000/svg"><path d="M7.72239 8.49465C7.54304 8.49465 7.37647 8.42392 7.25334 8.29544L0.384259 1.13076C0.264732 1.00611 0.200874 0.841606 0.204586 0.667608C0.208297 0.493611 0.278922 0.331948 0.40369 0.212421L0.411549 0.204889C0.532496 0.0888542 0.692084 0.024997 0.860842 0.024997C1.04019 0.024997 1.20676 0.0957312 1.32989 0.22421L8.19897 7.38888C8.44687 7.64737 8.43813 8.05933 8.17965 8.30723L8.17179 8.31476C8.05062 8.43079 7.89103 8.49465 7.72239 8.49465ZM0.860733 0.0304549C1.03855 0.0304549 1.20371 0.100643 1.32574 0.22803L8.19482 7.3927C8.31337 7.51638 8.37668 7.67946 8.37308 7.85193C8.36947 8.0244 8.29939 8.18475 8.17572 8.3033L8.16786 8.31083C8.04789 8.42588 7.88972 8.48919 7.72239 8.48919C7.54457 8.48919 7.37941 8.41901 7.25727 8.29162L0.388189 1.12694C0.269644 1.00327 0.206332 0.840187 0.209935 0.667718C0.213537 0.495248 0.283616 0.334896 0.407292 0.21635L0.415151 0.208819C0.535225 0.0937663 0.693394 0.0304549 0.860733 0.0304549ZM0.860733 0.0195392C0.697542 0.0195392 0.534024 0.0797943 0.407728 0.200959L0.399869 0.208491C0.139855 0.457807 0.131123 0.874462 0.38033 1.13448L7.24941 8.29915C7.37756 8.43276 7.54981 8.5 7.72239 8.5C7.88558 8.5 8.0491 8.43974 8.17539 8.31858L8.18325 8.31105C8.44326 8.06173 8.452 7.64508 8.20279 7.38506L1.33371 0.220389C1.20556 0.0867804 1.03331 0.0195392 0.860733 0.0195392ZM0.661957 8.4034C0.482611 8.4034 0.316145 8.33266 0.192906 8.20418L0.185374 8.19632C0.0658464 8.07167 0.00198916 7.90716 0.00570052 7.73317C0.00941189 7.55917 0.0800369 7.39751 0.204804 7.27798L7.60264 0.185241C7.72359 0.069206 7.88317 0.0053487 8.05193 0.0053487C8.23117 0.0053487 8.39775 0.0760828 8.52098 0.204561L8.52852 0.212421C8.64804 0.337079 8.7119 0.50158 8.70819 0.675577C8.70448 0.849574 8.63385 1.01124 8.50909 1.13076L1.11125 8.2235C0.990194 8.33954 0.830714 8.4034 0.661957 8.4034ZM8.05193 0.0109158C8.22975 0.0109158 8.39491 0.0811041 8.51694 0.208491L8.52448 0.21635C8.64302 0.340026 8.70633 0.503108 8.70273 0.675577C8.69913 0.848046 8.62905 1.0084 8.50537 1.12694L1.10743 8.21957C0.987465 8.33463 0.829295 8.39794 0.661957 8.39794C0.484139 8.39794 0.318983 8.32775 0.196836 8.20036L0.189304 8.1925C0.0707585 8.06883 0.00744702 7.90575 0.0110492 7.73328C0.0146514 7.56081 0.0847307 7.40045 0.208406 7.28191L7.60635 0.189279C7.72632 0.0742272 7.88448 0.0109158 8.05193 0.0109158ZM8.05182 0C7.88863 0 7.72512 0.060255 7.59882 0.18142L0.200874 7.27405C-0.0591392 7.52337 -0.0678717 7.94002 0.181335 8.20003L0.188867 8.2079C0.317018 8.3415 0.489269 8.40874 0.661847 8.40874C0.825038 8.40874 0.988556 8.34849 1.11485 8.22732L8.5128 1.13469C8.77281 0.885378 8.78154 0.468723 8.53234 0.208709L8.5248 0.20085C8.39676 0.0672411 8.2244 0 8.05182 0Z" fill="#E8503A"/></svg>

<svg width="9" height="9" fill="none" xmlns="http://www.w3.org/2000/svg"><path d="M7.722 8.495a.644.644 0 0 1-.469-.2L.384 1.131a.645.645 0 0 1-.18-.463.645.645 0 0 1 .2-.456L.412.205c.12-.116.28-.18.449-.18.18 0 .346.07.469.2l6.869 7.164a.65.65 0 0 1-.02.918l-.007.008a.647.647 0 0 1-.45.18ZM.861.03c.178 0 .343.07.465.198l6.869 7.165a.64.64 0 0 1 .178.459.64.64 0 0 1-.197.451l-.008.008a.64.64 0 0 1-.446.178.638.638 0 0 1-.465-.197L.388 1.127A.64.64 0 0 1 .21.667a.64.64 0 0 1 .197-.45L.415.208A.64.64 0 0 1 .861.03Zm0-.01A.652.652 0 0 0 .408.2L.4.208a.657.657 0 0 0-.02.926L7.25 8.3a.653.653 0 0 0 .925.02l.008-.008a.657.657 0 0 0 .02-.926L1.333.22a.653.653 0 0 0-.472-.2ZM.662 8.403a.644.644 0 0 1-.47-.199l-.007-.008a.645.645 0 0 1-.18-.463.645.645 0 0 1 .2-.455L7.603.185c.12-.116.28-.18.449-.18a.64.64 0 0 1 .469.2l.008.007c.119.125.183.29.18.464a.645.645 0 0 1-.2.455L1.111 8.223a.646.646 0 0 1-.449.18ZM8.052.011c.178 0 .343.07.465.197l.007.008a.64.64 0 0 1 .179.46.64.64 0 0 1-.198.45L1.107 8.22a.64.64 0 0 1-.445.178.638.638 0 0 1-.465-.198l-.008-.007a.64.64 0 0 1-.178-.46.64.64 0 0 1 .197-.451L7.606.189a.64.64 0 0 1 .446-.178Zm0-.011a.652.652 0 0 0-.453.181L.2 7.274a.657.657 0 0 0-.02.926l.008.008a.653.653 0 0 0 .926.02l7.398-7.093a.657.657 0 0 0 .02-.926L8.524.2a.653.653 0 0 0-.472-.2Z" fill="#E8503A"/></svg>
